assets/img/card-1.svg

<svg width="220" height="160" viewBox="0 0 220 160" fill="none" xmlns="http://www.w3.org/2000/svg">
<path d="M123.212 11.2664C138.044 16.3925 149.418 30.416 150.561 46.5223C151.053 53.5121 149.843 60.7581 146.931 68.2602C145.873 70.9901 144.923 72.9077 144.08 74.0132C137.195 83.042 127.751 92.7684 122.413 100.149C118.706 105.279 115.447 110.698 112.636 116.407C112.097 117.513 111.463 118.311 110.735 118.803C110.532 118.942 110.301 119.036 110.059 119.08C109.817 119.124 109.568 119.117 109.329 119.059C109.09 119.001 108.866 118.893 108.671 118.743C108.476 118.593 108.314 118.403 108.197 118.187C105.083 112.393 101.989 106.266 98.3393 101.15C92.9807 93.6177 86.4796 87.4907 80.8985 80.2514C78.5932 77.2688 75.9038 74.2457 74.3063 71.0002C71.7382 65.7966 70.1812 60.3469 69.6352 54.6513C66.8548 25.5831 94.4468 1.32767 123.212 11.2664ZM131.351 49.9195C131.351 44.2561 129.101 38.8247 125.096 34.8201C121.092 30.8155 115.66 28.5658 109.997 28.5658C104.334 28.5658 98.9022 30.8155 94.8976 34.8201C90.893 38.8247 88.6432 44.2561 88.6432 49.9195C88.6432 55.5828 90.893 61.0142 94.8976 65.0188C98.9022 69.0234 104.334 71.2732 109.997 71.2732C115.66 71.2732 121.092 69.0234 125.096 65.0188C129.101 61.0142 131.351 55.5828 131.351 49.9195Z" fill="#3841D2"/>
<path d="M181.762 138.923C181.824 138.926 181.886 138.913 181.941 138.884C181.996 138.856 182.043 138.813 182.078 138.76C182.112 138.708 182.133 138.647 182.138 138.583C182.143 138.52 182.131 138.456 182.106 138.398C179.093 131.704 175.965 125.078 172.723 118.52C170.124 113.262 167.081 105.457 163.795 100.412C163.195 99.4884 162.036 99.0267 160.317 99.0267C152.229 99.0065 143.941 99.0267 135.455 99.0873C134.673 99.0941 134.407 98.7301 134.656 97.9954C135.435 95.6902 141.046 90.5742 142.917 88.4914C143.705 87.6084 144.706 87.15 145.919 87.1163C153.799 86.9006 161.672 87.086 169.538 87.6724C173.309 87.9454 173.228 92.7075 174.593 95.4475C183.012 112.278 191.424 129.534 199.829 147.214C199.951 147.472 200.009 147.756 199.999 148.041C199.989 148.326 199.91 148.604 199.77 148.852C199.631 149.099 199.434 149.31 199.196 149.465C198.958 149.619 198.686 149.715 198.404 149.742C190.831 150.46 184.209 150.166 175.989 150.197C139.799 150.318 93.9777 150.315 38.5241 150.187C32.4678 150.166 26.7755 150.561 20.6181 149.368C20.5082 149.346 20.4044 149.3 20.314 149.234C20.2236 149.167 20.1488 149.082 20.0948 148.984C20.0409 148.886 20.0091 148.777 20.0017 148.665C19.9943 148.553 20.0114 148.441 20.0519 148.336C23.1964 140.359 27.4428 132.796 31.2444 124.435C34.1563 118.031 38.0995 110.007 43.0739 100.361C44.9545 96.7215 46.4104 92.5458 48.2101 88.6835C48.7359 87.5578 49.6189 87.0489 50.8591 87.1568C58.4926 87.8241 74.2754 84.7302 78.1781 89.462C80.2744 91.9964 82.6234 94.4365 85.2252 96.7821C85.4187 96.9591 85.5594 97.1866 85.6312 97.4389C85.703 97.6912 85.7031 97.9582 85.6316 98.2096C85.56 98.4611 85.4196 98.687 85.2263 98.8618C85.033 99.0366 84.7944 99.1533 84.5377 99.1986C84.2546 99.2525 83.9007 99.2795 83.4761 99.2795C74.8146 99.2188 66.288 99.0772 57.8961 98.8548C57.5313 98.843 57.1709 98.9417 56.861 99.138C56.5511 99.3344 56.306 99.6196 56.1571 99.9569C51.3849 110.775 45.8543 121.169 40.8799 131.886C40.098 133.558 39.2285 135.182 38.2713 136.76C38.192 136.892 38.1503 137.044 38.1508 137.198C38.1512 137.353 38.1937 137.504 38.2738 137.636C38.3539 137.768 38.4685 137.876 38.6052 137.948C38.7419 138.02 38.8957 138.053 39.0499 138.044C41.2641 137.892 43.7715 138.195 45.7027 138.195C88.8145 138.236 131.923 138.256 175.028 138.256C177.02 138.256 179.527 138.873 181.762 138.923Z" fill="#3841D2"/>
</svg>

<svg xmlns="http://www.w3.org/2000/svg" width="220" height="160" fill="none">
  <path fill="#3841D2" d="M123.212 11.266c14.832 5.126 26.206 19.15 27.349 35.256.492 6.99-.718 14.236-3.63 21.738-1.058 2.73-2.008 4.648-2.851 5.753-6.885 9.029-16.329 18.755-21.667 26.136a112.717 112.717 0 0 0-9.777 16.258c-.539 1.106-1.173 1.904-1.901 2.396a1.752 1.752 0 0 1-1.406.256 1.76 1.76 0 0 1-1.132-.872c-3.114-5.794-6.208-11.921-9.858-17.037-5.358-7.532-11.86-13.66-17.44-20.899-2.306-2.982-4.995-6.005-6.593-9.25-2.568-5.204-4.125-10.654-4.67-16.35-2.781-29.068 24.81-53.323 53.576-43.385Zm8.139 38.653A21.353 21.353 0 0 0 94.898 34.82a21.354 21.354 0 1 0 36.453 15.1Z"/>
  <path fill="#3841D2" d="M181.762 138.923a.362.362 0 0 0 .316-.163.378.378 0 0 0 .028-.362 607.492 607.492 0 0 0-9.383-19.878c-2.599-5.258-5.642-13.063-8.928-18.108-.6-.924-1.759-1.385-3.478-1.385-8.088-.02-16.376 0-24.862.06-.782.007-1.048-.357-.799-1.092.779-2.305 6.39-7.42 8.261-9.504.788-.883 1.789-1.341 3.002-1.375a232.08 232.08 0 0 1 23.619.556c3.771.273 3.69 5.035 5.055 7.776a2872.561 2872.561 0 0 1 25.236 51.766 1.789 1.789 0 0 1-.059 1.638 1.765 1.765 0 0 1-1.366.89c-7.573.718-14.195.424-22.415.455-36.19.121-82.011.118-137.465-.01-6.056-.021-11.748.374-17.906-.819a.774.774 0 0 1-.523-.384.767.767 0 0 1-.043-.648c3.144-7.977 7.39-15.54 11.192-23.901 2.912-6.404 6.855-14.428 11.83-24.074 1.88-3.64 3.336-7.815 5.136-11.678.526-1.125 1.409-1.634 2.65-1.526 7.633.667 23.415-2.427 27.318 2.305a69.586 69.586 0 0 0 7.047 7.32 1.416 1.416 0 0 1 .407 1.428 1.393 1.393 0 0 1-1.094.989c-.283.053-.637.08-1.062.08a1313.03 1313.03 0 0 1-25.58-.424 1.824 1.824 0 0 0-1.035.283c-.31.196-.555.482-.704.819-4.772 10.818-10.303 21.212-15.277 31.929a51.25 51.25 0 0 1-2.609 4.874.847.847 0 0 0 .334 1.188c.137.072.29.105.445.096 2.214-.152 4.722.151 6.653.151 43.111.041 86.22.061 129.325.061 1.992 0 4.499.617 6.734.667Z"/>
</svg>
